X: 3
T: The Headlands
R: strathspey
M: 4/4
L: 1/8
K: Amaj
dcBA A<cE>A | FAdf e2 ef/g/ | a>efa fedc | c>BAc B2 e>d | dcBA A<cE>A | FAdf a2 gf | eaAc Bfed | c2 A2 A2 :|a>efa cecA | dAdf e2 ef/g/ | a>efa fedc |1 c>BAc B2 ef/g/ | aeea cecA | dAdf a2 gf | eaAc Bfed | c2 A2 A2 :|dcBA A<cE>A | FAdf a2 gf | eaAc Bfed | c2 A2 A2 ||"A" - "A" - | "D" - "E7" - | "A" - "F#m" - | "B7" - "E7" - | "A" - "A" - | "D" - "D" - | "A" - "E7" - | "A" "D" "A" :|"A" - "A" - | "D" - "E7" - | "A" - "F#m" - |1 "B7" - "E7" - | "A" - "A" - | "D" - "D" - | "A" - "E7" - | "A" "D" "A" :|"A" - "A" - | "D" - "D" - | "A" - "E7" - | "A" "D" "A" ||


Tune 1950	Setting 15380

